X: 12887
T: Festival Of Tears, The
R: jig
M: 6/8
K: Aminor
G|Aee ede|d2c dcB|cd/e/f gde|dcB A2G|
Aee ede|d2c dcB|cd/e/f gde|dBA A2G||
ABd ef/g/a|b3 gBB|dd/e/f gfg|afd f2A|
B/c/de a3|bga gBB|dd/e/f gcd|dcB A2||

